X: 1
T: Do Ye Ken John Peel
M: 4/4
L: 1/8
R: barndance
K: Cmaj
EF |G2 G2 E2 EF | G2 G2 E2 DE | F2 F2 D2 DE | F2 F2 D2 ED |
C2 C2 c2 cB | A2 AA G2 FE | A2 FD C2 B,B, |D4 C2|
